(Exported by FreeCAD)
(Post Processor: grbl_post)
(Output Time:2026-06-12 22:05:09.589432)
(Begin preamble)
G17 G90
G21
(Begin operation: Fixture)
(Path: Fixture)
G54
(Finish operation: Fixture)
(Begin operation: TC: 5mm Endmill)
(Path: TC: 5mm Endmill)
(TC: 5mm Endmill)
(Begin toolchange)
( M6 T1 )
M3 S1000
(Finish operation: TC: 5mm Endmill)
(Begin operation: Pocket_Shape)
(Path: Pocket_Shape)
(Pocket_Shape)
G0 Z8.000
G0 Z5.000
G0 X-118.463 Y40.540
G0 X-118.463 Y40.540 Z8.000
G1 X-118.463 Y40.540 Z0.000 F200.000
G1 X-117.088 Y40.540 Z0.000 F250.000
G2 X-118.320 Y42.693 Z0.000 I1.261 J2.151 K0.000 F250.000
G1 X-118.320 Y94.117 Z0.000 F250.000
G2 X-116.495 Y96.515 Z0.000 I2.476 J0.009 K0.000 F250.000
G1 X-118.463 Y96.515 Z0.000 F250.000
G1 X-118.463 Y40.540 Z0.000 F250.000
G0 Z5.000
G0 X-22.082 Z5.000
G0 X-22.082 Z8.000
G1 X-22.082 Y40.540 Z0.000 F200.000
G1 X-22.082 Y96.515 Z0.000 F250.000
G1 X-24.785 Y96.515 Z0.000 F250.000
G2 X-22.959 Y94.117 Z0.000 I-0.650 J-2.389 K0.000 F250.000
G1 X-22.959 Y42.693 Z0.000 F250.000
G2 X-24.192 Y40.540 Z0.000 I-2.493 J-0.002 K0.000 F250.000
G1 X-22.082 Y40.540 Z0.000 F250.000
G0 Z5.000
G0 Z8.000
G0 Z5.000
G0 X116.275 Y95.037
G0 X116.275 Y95.037 Z8.000
G1 X116.275 Y95.037 Z0.000 F200.000
G1 X116.275 Y96.270 Z0.000 F250.000
G1 X115.492 Y96.270 Z0.000 F250.000
G2 X116.275 Y95.037 Z0.000 I-1.513 J-1.827 K0.000 F250.000
G0 Z5.000
G0 X20.139 Y96.270 Z5.000
G0 X20.139 Y96.270 Z8.000
G1 X20.139 Y96.270 Z0.000 F200.000
G1 X20.139 Y95.630 Z0.000 F250.000
G2 X20.678 Y96.270 Z0.000 I2.085 J-1.207 K0.000 F250.000
G1 X20.139 Y96.270 Z0.000 F250.000
G0 Z5.000
G0 Y40.295 Z5.000
G0 Y40.295 Z8.000
G1 X20.139 Y40.295 Z0.000 F200.000
G1 X21.618 Y40.295 Z0.000 F250.000
G2 X20.139 Y41.425 Z0.000 I0.624 J2.348 K0.000 F250.000
G1 X20.139 Y40.295 Z0.000 F250.000
G0 Z5.000
G0 X116.275 Z5.000
G0 X116.275 Z8.000
G1 X116.275 Y40.295 Z0.000 F200.000
G1 X116.275 Y42.018 Z0.000 F250.000
G2 X114.552 Y40.295 Z0.000 I-2.346 J0.623 K0.000 F250.000
G1 X116.275 Y40.295 Z0.000 F250.000
G0 Z5.000
G0 Z5.000
(Finish operation: Pocket_Shape)
(Begin postamble)
M5
G17 G90
M2
